local/share/icons/dracula-icons-main/22/places/folder-templates.svg

<svg width="22" height="22" version="1.1" viewBox="0 0 22 22" xmlns="http://www.w3.org/2000/svg">
 <defs>
  <style id="current-color-scheme" type="text/css">.ColorScheme-Text { color:#FFFFFF; } .ColorScheme-Highlight { color:#5294e2; }</style>
 </defs>
 <path class="ColorScheme-Text" d="m6 4c-0.554 0-1 0.446-1 1v9h1v-1h1v-7h5v3h3v9h1v-1h1v-9l-4-4zm10 14v1h1v-1zm-1 0h-1v1h1zm-1 0v-1h-1v1zm-1 0h-1v1h1zm-1 0v-1h-1v1zm-1 0h-1v1h1zm-1 0v-1h-1v1zm-1 0h-1v1h1zm-1 0v-1h-1v1zm-1 0h-1v1h1zm-1 0v-1h-1v1zm0-1h1v-1h-1zm0-1v-1h-1v1zm0-1h1v-1h-1z" fill="currentColor"/>
</svg>

<?xml version="1.0" encoding="UTF-8"?>
<svg xmlns="http://www.w3.org/2000/svg" xmlns:xlink="http://www.w3.org/1999/xlink" width="22" height="22" viewBox="0 0 22 22">
<path fill-rule="nonzero" fill="rgb(100%, 100%, 100%)" fill-opacity="1" d="M 6 4 C 5.445312 4 5 4.445312 5 5 L 5 14 L 6 14 L 6 13 L 7 13 L 7 6 L 12 6 L 12 9 L 15 9 L 15 18 L 16 18 L 16 17 L 17 17 L 17 8 L 13 4 Z M 16 18 L 16 19 L 17 19 L 17 18 Z M 15 18 L 14 18 L 14 19 L 15 19 Z M 14 18 L 14 17 L 13 17 L 13 18 Z M 13 18 L 12 18 L 12 19 L 13 19 Z M 12 18 L 12 17 L 11 17 L 11 18 Z M 11 18 L 10 18 L 10 19 L 11 19 Z M 10 18 L 10 17 L 9 17 L 9 18 Z M 9 18 L 8 18 L 8 19 L 9 19 Z M 8 18 L 8 17 L 7 17 L 7 18 Z M 7 18 L 6 18 L 6 19 L 7 19 Z M 6 18 L 6 17 L 5 17 L 5 18 Z M 6 17 L 7 17 L 7 16 L 6 16 Z M 6 16 L 6 15 L 5 15 L 5 16 Z M 6 15 L 7 15 L 7 14 L 6 14 Z M 6 15 "/>
</svg>
